images/item-expert1.svg

<svg width="80" height="80" viewBox="0 0 80 80" fill="none" xmlns="http://www.w3.org/2000/svg">
<path fill-rule="evenodd" clip-rule="evenodd" d="M12.4042 59.7833V55.0833C12.4042 54.4357 12.7779 53.8892 13.1297 53.4997C13.5105 53.0782 14.0305 52.6607 14.6338 52.2579C15.8464 51.4484 17.5315 50.609 19.4985 49.8503C23.433 48.3328 28.6392 47.0833 33.7375 47.0833H33.7479C36.8376 47.1155 39.8958 47.5112 42.8655 48.2411L46.3678 44.7388C42.2809 43.5154 38.0682 42.8377 33.7276 42.75C29.4015 42.7517 22.867 43.8369 17.4379 46.0077C14.7221 47.0936 12.3458 48.4266 10.6645 49.9798C8.99038 51.5264 8.07084 53.2245 8.07084 55.0833V64.0833H32.7375V59.7833H12.4042ZM33.7375 58.7833V65.0833H7.07084V55.0833C7.07084 46.1833 24.8375 41.75 33.7375 41.75C38.3569 41.8424 42.834 42.5892 47.1689 43.9377C47.5261 44.0489 47.8823 44.1641 48.2375 44.2833L43.1708 49.35C40.1042 48.55 36.9375 48.1167 33.7375 48.0833C23.8375 48.0833 13.4042 52.95 13.4042 55.0833V58.7833H33.7375ZM33.7375 12.75C26.9231 12.75 21.4042 18.269 21.4042 25.0833C21.4042 31.8977 26.9231 37.4167 33.7375 37.4167C40.5519 37.4167 46.0708 31.8977 46.0708 25.0833C46.0708 18.269 40.5519 12.75 33.7375 12.75ZM33.7375 32.75C29.5218 32.75 26.0708 29.3389 26.0708 25.0833C26.0708 20.8278 29.5218 17.4167 33.7375 17.4167C37.9565 17.4167 41.4042 20.8644 41.4042 25.0833C41.4042 29.299 37.993 32.75 33.7375 32.75ZM20.4042 25.0833C20.4042 17.7167 26.3708 11.75 33.7375 11.75C41.1042 11.75 47.0708 17.7167 47.0708 25.0833C47.0708 32.45 41.1042 38.4167 33.7375 38.4167C26.3708 38.4167 20.4042 32.45 20.4042 25.0833ZM27.0708 25.0833C27.0708 28.7833 30.0708 31.75 33.7375 31.75C37.4375 31.75 40.4042 28.75 40.4042 25.0833C40.4042 21.4167 37.4042 18.4167 33.7375 18.4167C30.0708 18.4167 27.0708 21.3833 27.0708 25.0833Z" fill="black"/>
<path fill-rule="evenodd" clip-rule="evenodd" d="M72.4847 42.9971C73.103 42.2907 73.0762 41.1886 72.4042 40.5166L68.1375 36.2499C67.7948 35.914 67.334 35.7258 66.8542 35.7258C66.3743 35.7258 65.9135 35.914 65.5708 36.2499L62.2375 39.5832L69.0708 46.2499L72.4042 42.9166V43.0832C72.4321 43.0553 72.459 43.0265 72.4847 42.9971ZM71.7739 42.2863C72.004 41.9713 71.9783 41.505 71.6971 41.2237L67.4346 36.9612C67.2791 36.8103 67.0709 36.7258 66.8542 36.7258C66.6374 36.7258 66.4291 36.8103 66.2737 36.9613L63.6605 39.5745L69.0622 44.8444L71.6971 42.2095L71.7739 42.2863ZM41.0708 61.9641V67.2499H46.6866L65.6854 48.0294L60.2795 42.7554L41.0708 61.9641ZM60.2708 41.3499L40.0708 61.5499V68.2499H47.1042L67.1042 48.0166L60.2708 41.3499Z" fill="black"/>
<path fill-rule="evenodd" clip-rule="evenodd" d="M72.4847 42.9971C73.103 42.2907 73.0762 41.1886 72.4042 40.5166L68.1375 36.2499C67.7948 35.914 67.334 35.7258 66.8542 35.7258C66.3743 35.7258 65.9135 35.914 65.5708 36.2499L62.2375 39.5832L69.0708 46.2499L72.4042 42.9166V43.0832C72.4321 43.0553 72.459 43.0265 72.4847 42.9971ZM71.7739 42.2863C72.004 41.9713 71.9783 41.505 71.6971 41.2237L67.4346 36.9612C67.2791 36.8103 67.0709 36.7258 66.8542 36.7258C66.6374 36.7258 66.4291 36.8103 66.2737 36.9613L63.6605 39.5745L69.0622 44.8444L71.6971 42.2095L71.7739 42.2863ZM41.0708 61.9641V67.2499H46.6866L65.6854 48.0294L60.2795 42.7554L41.0708 61.9641ZM60.2708 41.3499L40.0708 61.5499V68.2499H47.1042L67.1042 48.0166L60.2708 41.3499Z" fill="#FA6400"/>
</svg>

<svg xmlns="http://www.w3.org/2000/svg" width="80" height="80" fill="none"><path fill="#000" fill-rule="evenodd" d="M12.404 59.783v-4.7c0-.647.374-1.194.726-1.583.38-.422.9-.84 1.504-1.242 1.212-.81 2.898-1.649 4.864-2.408 3.935-1.517 9.141-2.767 14.24-2.767h.01c3.09.032 6.148.428 9.117 1.158l3.503-3.502a47.212 47.212 0 0 0-12.64-1.989c-4.327.002-10.861 1.087-16.29 3.258-2.716 1.086-5.092 2.419-6.773 3.972-1.675 1.546-2.594 3.245-2.594 5.103v9h24.666v-4.3H12.404Zm21.333-1v6.3H7.071v-10c0-8.9 17.767-13.333 26.666-13.333a48.26 48.26 0 0 1 14.5 2.533l-5.066 5.067a38.983 38.983 0 0 0-9.434-1.267c-9.9 0-20.333 4.867-20.333 7v3.7h20.333Zm0-46.033c-6.814 0-12.333 5.519-12.333 12.333 0 6.815 5.52 12.334 12.333 12.334 6.815 0 12.334-5.52 12.334-12.334S40.55 12.75 33.737 12.75Zm0 20c-4.215 0-7.666-3.411-7.666-7.667 0-4.255 3.45-7.666 7.666-7.666 4.22 0 7.667 3.447 7.667 7.666 0 4.216-3.411 7.667-7.667 7.667Zm-13.333-7.667c0-7.366 5.967-13.333 13.333-13.333 7.367 0 13.334 5.967 13.334 13.333 0 7.367-5.967 13.334-13.334 13.334-7.366 0-13.333-5.967-13.333-13.334Zm6.667 0c0 3.7 3 6.667 6.666 6.667 3.7 0 6.667-3 6.667-6.667 0-3.666-3-6.666-6.667-6.666a6.665 6.665 0 0 0-6.666 6.666ZM72.485 42.997a1.833 1.833 0 0 0-.08-2.48l-4.267-4.267a1.833 1.833 0 0 0-2.567 0l-3.334 3.333 6.834 6.667 3.333-3.333v.166a1.76 1.76 0 0 0 .08-.086Zm-.711-.71a.834.834 0 0 0-.077-1.063l-4.262-4.263a.834.834 0 0 0-1.161 0l-2.614 2.614 5.402 5.27 2.635-2.636.077.077ZM41.07 61.963v5.286h5.616l18.998-19.22-5.406-5.275-19.208 19.21Zm19.2-20.614-20.2 20.2v6.7h7.033l20-20.233-6.833-6.667Z" clip-rule="evenodd"/><path fill="#FA6400" fill-rule="evenodd" d="M72.485 42.997a1.833 1.833 0 0 0-.08-2.48l-4.267-4.267a1.833 1.833 0 0 0-2.567 0l-3.334 3.333 6.834 6.667 3.333-3.333v.166a1.76 1.76 0 0 0 .08-.086Zm-.711-.71a.834.834 0 0 0-.077-1.063l-4.262-4.263a.834.834 0 0 0-1.161 0l-2.614 2.614 5.402 5.27 2.635-2.636.077.077ZM41.07 61.963v5.286h5.616l18.998-19.22-5.406-5.275-19.208 19.21Zm19.2-20.614-20.2 20.2v6.7h7.033l20-20.233-6.833-6.667Z" clip-rule="evenodd"/></svg>
